X:1
T:Title
%%score { 1 | 2 }
L:1/8
Q:1/4=120
M:6/4
K:G
V:1 treble nm="Grand Piano"
V:2 treble 
V:1
 B2 G2 A2 B2 G2 A2 | B2 c2 B2 [FA]6 | [FA]2 [A,DF]2 [A,EG]2 [DFA]2 [A,DF]2 [A,EG]2 | %3
w: Willima~Edie~Marks * * * * *|||
 [DFA]2 [DFB]2 [CFA]2 [B,G]6 | [DBd]2 [DGB]2 [DAc]2 [DBd]2 [DGB]2 [CDA]2 | %5
w: ||
 [B,DG]2 [CDA]2 [B,DG]2 [G,CE]6 | [Ec]2 [EB]2 [A,EA]2 [B,DG]4 [A,DF]2 | [CFA]6 [B,G]6 | %8
w: |||
 [DBd]2 B2 c2 d6 | [Ge]2 [Ec]2 [Fd]2 [Ge]6 | [Bd]2 [Ac]2 [GB]2 [Bd]4 [GB]2 | [GB]6 [FA]6 | %12
w: ||||
 [Gd]2 [DGB]2 [DAc]2 [DBd]2 [DGB]2 [CDA]2 | [B,DG]2 [CDA]2 [B,DG]2 [G,CE]6 | %14
w: ||
 [Ec]2 [EB]2 [A,EA]2 [B,DG]4 [A,DF]2 | [CFA]6 [B,G]6 |] %16
w: ||
V:2
 [G,DG]2 [G,B,]2 [G,CG]2 [G,DG]2 [G,B,]2 [G,CG]2 | [G,DG]2 [G,EG]2 [G,DG]2[K:bass] [D,D]6 | %2
 [D,D]2 D,2 D,2 D,2 D,2 D,2 | D,2 D,2 D,2 G,,6 | G,2 G,2 G,2 G,2 G,2 G,2 | G,,2 G,,2 G,,2 C,6 | %6
 [C,G,]2 [C,^G,]2 C,2 D,4 D,2 | D,6 G,,6 | G,2[K:treble] [G,DG]2 [G,A,G]2 [G,B,G]6 | %9
 [C,C]2 [C,C]2 [C,C]2 [C,C]6 | [G,D]2 [G,D]2 [G,D]2 [G,D]4 [G,D]2 | [D,D]6 [D,D]6 | %12
 [G,B,]2 G,2 G,2 G,2 G,2 G,2 | G,,2 G,,2 G,,2 C,6 | [C,G,]2 [C,^G,]2 C,2 D,4 D,2 | D,6 G,,6 |] %16

